X:1
T:Amar... Nocturno
T:Amar... (Nocturno)
T:Revised Edition
T:Felipe Villanueva (1862-1893)
C:Felipe Villanueva
%%score { ( 1 4 ) | ( 2 3 ) }
L:1/8
Q:1/4=85
M:4/4
K:Eb
V:1 treble nm="Piano" snm="Pno."
V:4 treble 
V:2 bass 
V:3 bass 
V:1
!p!"_leggiero" (20:4:20x[I:staff +1] ^C,,=E,,G,, B,,^C,=E,G, B,^C[I:staff -1]=EG B^c=eg b^c'!8va(!=e'g' !trill(!Tb'2({=a'b'=e'')} !fermata!b'2!8va)! | %1
 (20:4:20x[I:staff +1] D,,F,,A,, B,,D,F,A, B,[I:staff -1]DFA Bdfa b!8va(!d'f'a' !trill(!Tb'2({a'b'f'')} !fermata!b'2!8va)! | %2
 (20:4:20x[I:staff +1] =E,,^F,,=A,, C,E,^F,=A, C[I:staff -1]E^F=A ce^f=a c'!8va(!e'^f'=a' !trill(!Tc''2({b'c''^f'')} !fermata!c''2!8va)! | %3
 (20:4:20x[I:staff +1] F,,A,,B,, D,F,A,B, D[I:staff -1]FAB dfab!8va(! d'f'a'b' !trill(!Td''2({^c''d''a'')} .d''2!8va)! | %4
!<(!{^c'd'a'} .d'2{^cda} .d2{cdb} .d2{cd=b} .d2 | %5
{^cd!courtesy!=c'} (3[Bb]!<)!!mf![Bb][Bb][Q:1/4=85]"^rit."!>(! (3[Bb][Q:1/4=79]"^.4"[Bb][Q:1/4=73]"^.9"[Bb][Q:1/4=68]"^.3" (3[B=ab][Q:1/4=62]"^.8"[Bab][Q:1/4=57]"^.2"[Bab][Q:1/4=51]"^.7" (3[B_ab][Bab]!fermata![Bab]!>)! || %6
[Q:1/4=85]!mp!"^a tempo" [Bgb]/[Bgb]/[Bgb] [ege']/[ege']/[ege'] [fgf']/[fgf']/[fgf'] [ege']/[ege']/[ege'] | %7
 [ec'e'][dbd'][dbd'][cac'] [dbd']4 | %8
 ([Ada]/[Ada]/[Ada] [dad']/[dad']/[dad'] [eae']/[eae']/[eae'] [dad']/[dad']/[dad'] | %9
 [dgd'][cgc'][cgc'][Geg] [Geg]4) | %10
!f!"_subito" ([Bgb]/[Bgb]/[Bgb] [ege']/[ege']/[ege'] [aba']/[aba']/[aba'] [gbg']/[gbg']/[gbg'] | %11
 [ge'g'][fd'f']{/g'}[fd'f'][=e^c'=e'] [fd'f']2 [dbd']2) | %12
 ([e^fe']/[efe']/[efe'] [ege']/[ege']/[ege'] [d=ad']/[dad']/[dad'] [cac']/[cac']/[cac'] | %13
 [Bdb]/[Bb]/[Bb]"^rit."[Q:1/4=85] [Bb]/[Q:1/4=80]"^.8"[Bb]/[Q:1/4=76]"^.7"!>(![Bb][Q:1/4=68]"^.3" [Bb]/[Q:1/4=64]"^.2"[Bb]/[Q:1/4=60][Bb][Q:1/4=51]"^.7" [Bb]/[Q:1/4=47]"^.5"[Bb]/[Q:1/4=43]"^.3"[Bb])!>)! | %14
"^a tempo"!p![Q:1/4=85] .[Bgb]/.[Bgb]/.[Bgb] .[ege']/.[ege']/.[ege'] .[fgf']/.[fgf']/.[fgf'] .[ege']/.[ege']/.[ege'] | %15
 .[ec'e'].[dbd'].[dbd'].[cac'] [dbd']4 | %16
 .[Ada]/.[Ada]/.[Ada] .[dad']/.[dad']/.[dad'] .[eae']/.[eae']/.[eae'] .[dad']/.[dad']/.[dad'] | %17
 .[dgd'].[cgc'].[cgc'].[Geg] [Geg]4 | %18
"_subito"!ff! .[Bgb]/.[Bgb]/.[Bgb] .[ege']/.[ege']/.[ege'] .[aba']/.[aba']/.[aba'] .[gbg']/.[gbg']/.[gbg'] | %19
 .[ge'g'].[fd'f']{/g'}.[fd'f'].[=e^c'=e'] [fd'f']2 [dbd']2 | %20
 .[e^fe']/!>(!.[efe']/.[efe'] .[ege']/.[ege']/.[ege'] .[d=ad']/.[dad']/.[dad'] .[cac']/.[cac']/.[cac']!>)! | %21
!mp! .[Bdb]/.[Bb]/.[Bb]"^rit."[Q:1/4=85] .[Bb]/[Q:1/4=81]"^.7".[Bb]/[Q:1/4=78]"^.3".[Bb][Q:1/4=71]"^.7" .[Bb]/[Q:1/4=68]"^.3".[Bb]/[Q:1/4=65].[Bb][Q:1/4=58]"^.3" .[Bb]/[Q:1/4=55].[Bb]/[Q:1/4=51]"^.7".[Bb] || %22
[Q:1/4=85]"^a tempo" ([_df_d']/[dfd']/[dfd'] [_cf_c']/[cfc']/[cfc'] [Gfg]/[Gfg]/[Gfg] [Afa]/[Afa]/[Afa] | %23
 [e_ge']/[ege']/[_dg_d'] [dgd']/[dgd']/[_cg_c'] [Bgb]/[_Gg][Bb]/- [Bb]/[dd']!fermata![g_g']/) | %24
!pp! .[f=af']/.[faf']/.[faf'] .[eae']/.[eae']/.[eae'] .[=Be=b]/.[Beb]/.[Beb] .[cec']/.[cec']/.[cec'] | %25
 .[gbg']/.[gbg']/.[fbf'] .[fbf']/.[fbf']/.[ebe'] [dbd']/!<(!([Ff][Bb]/- [Bb]/[dd'][ff']/!<)! | %26
!ff! ([bd'b']/)[bd'b']/[bd'b'] [be'b']/[be'b']/[be'b'] [bf'b']/[bf'b']/[bf'b'] [b^f'b']/[bf'b']/[bf'b'] | %27
 !tenuto![c'e'c'']/!tenuto![c'e'c'']/!tenuto![c'e'c''] !tenuto![be'b']/!tenuto![be'b']/!tenuto![be'b'] [ac'a']/[ac'a']/[ac'a'] [f=bf']/[fbf']/[fbf'] | %28
 [ege']/!>(![ege']/[ege'] [Bgb]/[Bgb]/[Bgb] [cac']/[cac']/[cac'] [Bab]/[Bab]/[Bab])!>)! | %29
!mf!{/e} E/E/E .E/.E/.E .E/.E/.E .E/.E/.E | %30
 .E/.E/.E .E/.E/.E"^rit."[Q:1/4=85] .E/[Q:1/4=82]"^.9".E/[Q:1/4=80]"^.8".E[Q:1/4=76]"^.7" .E/[Q:1/4=74]"^.6".E/[Q:1/4=72]"^.5"!>(!.E | %31
[Q:1/4=68]"^.3" .E/[Q:1/4=66]"^.3".E/[Q:1/4=64]"^.2".E[Q:1/4=60] .E/[Q:1/4=57]"^.9".E/[Q:1/4=55]"^.8".E[Q:1/4=51]"^.7" .E/[Q:1/4=49]"^.6".E/[Q:1/4=47]"^.5".E[Q:1/4=43]"^.3" .E/[Q:1/4=41]"^.3".E/[Q:1/4=39]"^.2".E!>)! || %32
[K:Ab]"^Tranquillo"!p![Q:1/4=75]"_a tempo" !arpeggio![Ccc']3 [Bb] [Aa][cc'][gg'][ff'] | %33
 [ee']4 [Bb]2 [cc']>[Bb] | [Aa]3 [Gg] [Aa][cc'][ee'][dd'] | [cc']3 [Bb]/[Aa]/ [Bb]4 | %36
 [cc']3 [Bb] [Aa][cc'][gg'][ff'] | [ee']4 [cc']4 | [Aa]3 [Aa]- [Aa][Gg][^F^f][Gg] | [cc']8 | %40
!pp! [cc']3 [Bb] [Aa][cc'][gg'][ff'] | [ee']4{[=d=d'][ee'][dd'][ee'][ff'][ee']} [Bb]2 [cc']>[Bb] | %42
 [Aa]3 [Gg] [Aa]2{[Bb][Aa][Gg][Aa][Bb][Aa]} [ee']>[dd'] | [cc']3 [Bb]/[Aa]/ [Bb]4 | %44
!mf!"_subito" [cc']3 [Bb] [Gg](3[Aa]/[Bb]/!<(![Aa]/ [bb']>[aa']!<)! | %45
!ff!!>(! [c'c'']4 z [aa'] [gg'][ff']!>)! | %46
!mf! [ff']/[ee']/[=d=d']/[ee']/ [gg'][aa']!mp! [cc']/[Bb]/[=A=a]/[Bb]/ [dd'][ee'] | [Aa]8 | %48
 [_CE]8 | [B,=D]8 | [_CE]8 | %51
 b/=d/B/d/"^rit."[Q:1/4=85]!>(! b/[Q:1/4=81]"^.7"e/[Q:1/4=78]"^.3"B/[Q:1/4=75]e/[Q:1/4=71]"^.7" b/[Q:1/4=68]"^.3"f/[Q:1/4=65]B/[Q:1/4=61]"^.7"f/[Q:1/4=58]"^.3" b/[Q:1/4=55]^f/[Q:1/4=51]"^.7"B/[Q:1/4=48]"^.3"!fermata!f/!>)! || %52
[K:Eb]!p![Q:1/4=85]"^molto cantabile" b2 e'2 f'2 e'2 | e'd'd'c' d'4 |!<(! a2 d'2 e'2 d'2!<)! | %55
!mp! d'c'c'g g4 |!mf! b2 e'2 a'2 g'2 |!mf! g'f'f'=e' f'2 d'2 | e'2 e'2 d'2 c'2 | %59
 b2 x2"^rit."[Q:1/4=85] x4[Q:1/4=81][Q:1/4=78][Q:1/4=75][Q:1/4=71][Q:1/4=68][Q:1/4=65][Q:1/4=61][Q:1/4=58][Q:1/4=55][Q:1/4=51][Q:1/4=48] | %60
!pp![Q:1/4=85] b2 e'2 f'2 e'2 | e'd'd'^c' d'4 |!<(! a2 d'2 e'2 d'2!<)! |!mp! d'c'c'g g4 | %64
!<(! b2 e'2 a'2 g'2!<)! |!mf! g'f'f'=e' f'2 d'2 | e'2 e'2 d'2 c'2 | %67
!>(! b2 x2"^rit."[Q:1/4=85] x4[Q:1/4=81][Q:1/4=78][Q:1/4=75][Q:1/4=71][Q:1/4=68][Q:1/4=65][Q:1/4=61][Q:1/4=58][Q:1/4=55][Q:1/4=51][Q:1/4=48]!>)! || %68
[Q:1/4=85]!p! _d'2 _c'2 g2 a2 |!<(! e'_d'd'_c' b!tenuto!_g!tenuto!b!tenuto!d'!<)! | %70
!mp! f'2 e'2 =b2 c'2 |!<(! g'f'f'e' d'!tenuto!b!tenuto!d'!tenuto!f' | b'2 b'2 b'2 b'2!<)! | %73
!ff! c''2 b'2 a'2 f'2 |!>(! e'2 b2 c'2 b2!>)! |!mp! e8 | %76
 (3e/G/E/(3e/G/E/ (3e/G/E/(3e/G/E/ (3e/G/E/(3e/G/E/ (3e/G/E/(3e/G/E/ | %77
!p! (3e/[K:bass]G,/E,/(3E/G,/E,/ (3E/G,/E,/(3E/G,/E,/ (3E/G,/E,/(3E/G,/E,/ (3E/G,/E,/(3E/G,/E,/ | %78
 (3E/G,/E,/(3E/G,/E,/!>(! (3E/G,/E,/(3E/G,/E,/ (3E/G,/E,/(3E/G,/E,/ (3E/G,/E,/(3E/G,/E,/!>)! | %79
!pp! (3E/G,/E,/(3E/G,/E,/ (3G/B,/G,/(3G/B,/G,/[K:treble] (3B/G/B,/(3B/G/B,/ (3g/B/G/(3g/B/G/ | %80
 (3e/G/E/(3e/G/E/ (3g/B/G/(3g/B/G/ (3b/g/B/(3b/g/B/ (3g'/b/g/(3g'/b/g/ | %81
!>(! (3e'/g/e/(3e'/g/e/ (3e'/g/e/(3e'/g/e/"^rit."[Q:1/4=85] (3e'/[Q:1/4=80]"^.8"g/[Q:1/4=76]"^.7"e/[Q:1/4=72]"^.5"(3e'/[Q:1/4=68]"^.3"g/[Q:1/4=64]"^.2"e/[Q:1/4=60] (3e'/[Q:1/4=55]"^.8"g/[Q:1/4=51]"^.7"e/[Q:1/4=47]"^.5"(3e'/[Q:1/4=43]"^.3"g/[Q:1/4=39]"^.2"e/!>)! | %82
!ppp![Q:1/4=35] e'8- | !fermata!e'8 |] %84
V:2
!ped! B,,,8!ped-up! |!ped! B,,,8!ped-up! |!ped! B,,,8!ped-up! |!ped! B,,,8!ped-up! | z8 | %5
 B,4- [B,-CF-]2 [B,DF]2 ||!ped! E,,B,G,B, EB,G,B, |!ped! B,,,!ped-up!B,A,B, FB,A,B, | %8
!ped! B,,,!ped-up!B,A,B, FB,A,B, |!ped! E,,!ped-up!B,G,B, EB,G,B, | %10
!ped! E,,!ped-up!B,G,B, EB,G,B, |!ped! F,,!ped-up!B,DB, FB,DB, |!ped! F,,!ped-up!=A,EA, FA,EA, | %13
 [B,D]2 AF DB,A,F, | .E,.B,.G,.B, .[EG].B,.G,.B, | .B,,,.B,.[A,F].B, .[FA].B,.[A,F].B, | %16
 .B,,.B,.[A,F].B, .[FA].B,.[A,F].B, | .E,.B,.G,.B, .[EG].B,.G,.B, | .E,,.B,.G,.B, .[EG].B,.G,.B, | %19
 .F,,.B,.[F,D].B, .[DF].B,.[F,D].B, | .F,.=A,E.A, .F.A,.E.A, | [B,D](B,,D,F, B,DFB) || %22
!ped! _D,_D[_CF]D [A,F]DCD!ped-up! |!ped! _G,,!ped-up!_D[B,_G]D GDB,_G, | %24
 .[F,,F,].=A,.F,.A, .C.A,.F,.A, | .B,,,.B,.F,.B,!ped! [DF]B,!tenuto![F,D]B,!ped-up! | %26
!ped! D!ped-up!B,[CE]B, [DF]B,[D^F]B, |!ped! G,!ped-up!B,[EG]B,!ped! F,!ped-up!C[FA]=B, | %28
!ped! B,,!ped-up!B,[G,E]B,!ped! B,,!ped-up!B,[A,D]B, | [E,G,]4 z4 | [^F,,E,]8 | [G,,E,]4 E,,4 || %32
[K:Ab]!ped! A,,/E,/C/A,/ E/C/A,/E,/- E,/E/C/A,/ F/=D/=B,/A,/!ped-up! | %33
!ped! G,,/!ped-up!G,/E/B,/ G/E/B,/G,/!ped! _G,,/!ped-up!_G,/E/B,/ _G/E/B,/G,/ | %34
!ped! F,,/!ped-up!F,/D/A,/ F/D/A,/F,/!ped! _F,,/!ped-up!_F,/D/A,/ _F/D/A,/F,/ | %35
!ped! E,,/!ped-up!E,/C/A,/ A/E/C/A,/!ped! G/!ped-up!E/D/B,/ D/B,/G,/E,/ | %36
!ped! A,,/!ped-up!E,/C/A,/ E/C/A,/E,/- E,/E/C/A,/ F/=D/=B,/A,/ | %37
!ped! G,,/!ped-up!G,/E/C/ G/E/C/G,/ E,/E/C/G,/ E/C/G,/E,/ | %38
!ped! G,,/!ped-up!=D,/C/A,/ =D/C/A,/F,/!ped! G,,/!ped-up!D,/=B,/G,/ D/B,/G,/D,/ | %39
!ped! C,,/!ped-up!C,/G,/E,/ C/G,/E/C/ G/E/c/G/ E/C/G,/E,/ | %40
!ped! A,,/!ped-up!E,/C/A,/ E/C/A,/E,/- E,/E/C/A,/ F/=D/=B,/A,/ | %41
!ped! G,,/!ped-up!G,/E/B,/ G/E/B,/G,/!ped! _G,,/!ped-up!_G,/E/B,/ _G/E/B,/G,/ | %42
!ped! F,,/!ped-up!F,/D/A,/ F/D/A,/F,/!ped! _F,,/!ped-up!_F,/D/A,/ _F/D/A,/F,/ | %43
!ped! E,,/!ped-up!E,/C/A,/ A/E/C/A,/!ped! G/!ped-up!E/D/B,/ D/B,/G,/E,/ | %44
!ped! A,,/!ped-up!E,/C/A,/ E/C/A,/E,/- E,/E/C/A,/ F/=D/=B,/A,/ | %45
!ped! =D,,/!ped-up!A,/F/C/ A/F/C/A,/ F,/F/C/A,/ F/C/A,/F,/ | %46
!ped! E,,/!ped-up!E,/A,/C/ EC!ped! E,,/!ped-up!E,/G,/B,/ !courtesy!_DG, | %47
!ped! A,,/!ped-up!E,/C/A,/ E/C/A/E/ c/A/E/C/ A/E/C/A,/ | %48
!ped! A,,/!ped-up![I:staff -1]A/_c/A/ e/c/a/e/ _c'/a/e'/c'/ a'/e'/c'/a/ | %49
!ped![I:staff +1] [B,,F,]8!ped-up! | %50
!ped! _C,/!ped-up![I:staff -1]A/_c/A/ e/c/a/e/ _c'/a/e'/c'/ a'/e'/c'/a/ | %51
!ped![I:staff +1] !arpeggio![B,,F,B,=D]2!ped-up! z2 z4 ||[K:Eb]!ped! E,,G,!ped-up!B,E GEB,G, | %53
!ped! F,,!ped-up!A,B,D ADB,A, |!ped! B,,,!ped-up!A,B,D ADB,A, |!ped! E,,!ped-up!G,B,E GEB,G, | %56
!ped! E,,!ped-up!G,B,E GEB,G, |!ped! F,,!ped-up!F,B,D FDB,F, |!ped! F,,!ped-up!F,CE =AECF, | %59
 B,,2 z2 z4 |!ped! E,,G,B,E GEB,G,!ped-up! |!ped! F,,!ped-up!A,B,D ADB,A, | %62
!ped! B,,,!ped-up!A,B,D ADB,A, |!ped! E,,!ped-up!G,B,E GEB,G, |!ped! E,,!ped-up!G,B,E GEB,G, | %65
!ped! F,,!ped-up!F,B,D FDB,F, |!ped! F,,!ped-up!F,CE =AECF, | B,,2 z2 z4 || %68
!ped! _D,,_D,A,_D FDA,F,!ped-up! |!ped! _G,,!ped-up!_G,B,_D _GDB,G, |!ped! F,,!ped-up!F,CE =AECF, | %71
!ped! B,,!ped-up!B,DF BFDB, |!ped! A,,!ped-up!B,[CE]B, [DF]B,[D^F]B, | %73
!ped! G,,!ped-up!B,[EG]B,!ped! F,,!ped-up!C[A,F]=B, | %74
!ped! B,,!ped-up!B,[EG]B,!ped! B,,,!ped-up!B,[A,D]B, | [E,G,]4!mf!!mf! !tenuto![_D,E,_D]4 | %76
 [C,C]2 [_C,_C]2 [B,,B,]2 [G,,G,]2 |!mp! [E,,E,]4 !tenuto![_D,,E,,_D,]4 | %78
 [C,,C,]2 [_C,,_C,]2 [B,,,B,,]2 [G,,,G,,]2 |!p!!ped! [E,,,E,,]8!ped-up! | %80
!pp! !arpeggio![E,,B,,G,]8 | !arpeggio![E,B,G]4 !arpeggio![E,B,G]4 | !arpeggio![E,B,G]8- | %83
 !fermata![E,B,G]8 |] %84
V:3
 x8 | x8 | x8 | x8 | x8 | x8 || E,,8 | B,,,8 | B,,,8 | E,,8 | E,,8 | F,,8 | F,,8 | x8 | %14
 !arpeggio!.[E,,B,,E,]2 x2 x4 | !arpeggio!.[B,,,,F,,,B,,,]2 x2 x4 | %16
 !arpeggio!.[B,,,F,,B,,]2 x2 x4 | !arpeggio!.[E,,B,,E,]2 x2 x4 | !arpeggio!.[E,,,B,,,E,,]2 x2 x4 | %19
 !arpeggio!.[F,,,D,,F,,]2 x2 x4 | !arpeggio!.[F,,F,]2 x2 x4 | x8 || _D,,8 | _G,,8 | x8 | x8 | %26
 A,,8 | G,,4 F,,4 | B,,4 B,,4 | x8 | x8 | x8 ||[K:Ab] A,,8 | G,,4 _G,,4 | F,,4 _F,,4 | E,,8 | %36
 [A,,,A,,]8 | [G,,,G,,]8 | G,,4 G,,4 | C,,8 | [A,,,E,,A,,]8 | G,,4 _G,,4 | F,,4 _F,,4 | E,,8 | %44
 [A,,,E,,A,,]8 | [=D,,,=D,,]8 | [E,,,E,,]4 [E,,,E,,]4 | A,,8 | A,,8 | %49
 B,,/[I:staff -1]B/=d/B/ f/d/b/f/ =d'/b/f'/d'/ b'/f'/d'/b/ |[I:staff +1] [_C,A,]8 | x8 || %52
[K:Eb] E,,8 | F,,8 | B,,,8 | E,,8 | E,,8 | F,,8 | F,,8 | x8 | !arpeggio![E,,,B,,,E,,]8 | %61
 !arpeggio![F,,,B,,,F,,]8 | !arpeggio![B,,,,F,,,B,,,]8 | !arpeggio![E,,,B,,,E,,]8 | [E,,,E,,]8 | %65
 !arpeggio![F,,,D,,F,,]8 | [F,,,F,,]8 | x8 || _D,,8 | _G,,8 | F,,8 | B,,8 | A,,8 | G,,4 F,,4 | %74
 [B,,,B,,]4 [B,,,,B,,,]4 | x8 | x8 | x8 | x8 | x8 | x8 | x8 | z4 E,,4- | E,,8 |] %84
V:4
 x18/5!8va(! x22/5!8va)! | x17/5!8va(! x23/5!8va)! | x17/5!8va(! x23/5!8va)! | %3
 x16/5!8va(! x24/5!8va)! | x8 | x8 || x8 | x8 | x8 | x8 | x8 | x8 | x8 | x8 | x8 | x8 | x8 | x8 | %18
 x8 | x8 | x8 | x8 || x8 | x8 | x8 | x8 | x8 | x8 | x8 | x8 | =A,8 | B,4 [G,=B,]4 ||[K:Ab] x8 | %33
 x8 | x8 | x8 | x8 | x8 | x8 | x8 | x8 | x8 | x8 | x8 | x8 | x8 | x8 | x8 | x8 | x8 | x8 | x8 || %52
[K:Eb] (3b/g/B/(3g/B/g/ (3e'/g/e/(3g/e/g/ (3f'/g/f/(3g/f/g/ (3e'/g/e/(3g/e/g/ | %53
 (3e'/a/e/(3d'/a/d/ (3d'/a/d/(3c'/a/c/ (3d'/a/d/(3a/d/a/ (3d/a/d/(3a/d/a/ | %54
 (3a/d/A/(3d/A/d/ (3d'/a/d/(3a/d/a/ (3e'/a/e/(3a/e/a/ (3d'/a/d/(3a/d/a/ | %55
 (3d'/g/d/(3c'/g/c/ (3c'/g/c/(3g/e/G/ (3g/e/G/(3e/G/e/ (3G/e/G/(3e/G/e/ | %56
 (3b/g/B/(3g/B/g/ (3e'/g/e/(3g/e/g/ (3a'/b/a/(3b/a/b/ (3g'/b/g/(3b/g/b/ | %57
 (3g'/b/g/(3f'/b/f/ (3f'/b/f/(3=e'/b/=e/ (3f'/b/f/(3b/f/b/ (3d'/b/d/(3b/d/b/ | %58
 (3e'/^f/e/(3f/e/f/ (3e'/g/e/(3g/e/g/ (3d'/=a/d/(3a/d/a/ (3c'/a/c/(3a/c/a/ | %59
 (3b/d/B/!>(!(3B/B/B/ (3B/B/B/(3B/B/B/ (3B/"^.7"B/"^.3"B/(3B/"^.7"B/"^.3"B/ (3B/"^.7"B/"^.3"B/(3B/"^.7"B/"^.3"B/!>)! | %60
 (3b/g/B/(3g/B/g/ (3e'/g/e/(3g/e/g/ (3f'/g/f/(3g/f/g/ (3e'/g/e/(3g/e/g/ | %61
 (3e'/a/e/(3d'/a/d/ (3d'/a/d/(3^c'/a/^c/ (3d'/a/d/(3a/d/a/ (3d/a/d/(3a/d/a/ | %62
 (3a/d/A/(3d/A/d/ (3d'/a/d/(3a/d/a/ (3e'/a/e/(3a/e/a/ (3d'/a/d/(3a/d/a/ | %63
 (3d'/g/d/(3c'/g/c/ (3c'/g/c/(3g/e/G/ (3g/e/G/(3e/G/e/ (3G/e/G/(3e/G/e/ | %64
 (3b/g/B/(3g/B/g/ (3e'/g/e/(3g/e/g/ (3a'/b/a/(3b/a/b/ (3g'/b/g/(3b/g/b/ | %65
 (3g'/b/g/(3f'/b/f/ (3f'/b/f/(3=e'/b/=e/ (3f'/b/f/(3b/f/b/ (3d'/b/d/(3b/d/b/ | %66
 (3e'/^f/e/(3f/e/f/ (3e'/g/e/(3g/e/g/ (3d'/=a/d/(3a/d/a/ (3c'/a/c/(3a/c/a/ | %67
 (3b/d/B/(3B/B/B/ (3B/B/B/(3B/B/B/ (3B/"^.7"B/"^.3"B/(3B/"^.7"B/"^.3"B/ (3B/"^.7"B/"^.3"B/(3B/"^.7"B/"^.3"B/ || %68
 (3_d'/f/_d/(3f/d/f/ (3_c'/f/_c/(3f/c/f/ (3g/f/G/(3f/G/f/ (3a/f/A/(3f/A/f/ | %69
 (3e'/_g/e/(3_d'/g/_d/ (3d'/g/d/(3_c'/g/_c/ (3b/g/B/(3g/B/_G/ (3b/g/B/(3d'/g/d/ | %70
 (3f'/=a/f/(3a/f/a/ (3e'/a/e/(3a/e/a/ (3=b/a/=B/(3a/B/a/ (3c'/a/c/(3a/c/a/ | %71
 (3g'/b/g/(3f'/b/f/ (3f'/b/f/(3e'/b/e/ (3d'/b/d/(3b/d/B/ (3d'/b/d/(3f'/b/f/ | %72
 (3b'/d'/b/(3d'/b/d'/ (3b'/e'/b/(3e'/b/e'/ (3b'/f'/b/(3f'/b/f'/ (3b'/^f'/b/(3f'/b/f'/ | %73
 (3c''/g'/c'/(3g'/c'/g'/ (3b'/g'/b/(3g'/b/g'/ (3a'/f'/a/(3f'/a/f'/ (3f'/a/f/(3a/f/a/ | %74
 (3e'/g/e/(3g/e/g/ (3b/g/B/(3g/B/g/ (3c'/a/d/(3a/d/a/ (3b/d/B/(3d/B/d/ | %75
 (3e/G/E/(3e/G/E/ (3e/G/E/(3e/G/E/ (3e/G/E/(3e/G/E/ (3e/G/E/(3e/G/E/ | x8 | x/3[K:bass] x23/3 | %78
 x8 | x4[K:treble] x4 | x8 | x8 | x8 | x8 |] %84

